X:1
T:Ostergaard, 9.9.10.10
T:Danish Folk Tune
T:Ostergaard, 9.9.10.10
T:Public Domain
C:Danish Folk Tune
Z:Public Domain
%%score ( 1 2 ) ( 3 4 )
L:1/8
M:3/4
K:Eb
V:1 treble 
V:2 treble 
V:3 bass 
V:4 bass 
V:1
 B,2 | [B,G]4 [=B,F]2 | [CE]3 D [B,E]2 | [B,DB]4 F2 | [G,B,EG]4 [G,B,D]2 | [G,CE]4 [G,CE]2 | %6
 A2 G2 F2 | [B,DF]4 B2 | [G,B,EG]4 G2 | [EGe]4 [EGe]2 | [DG=Bd]2 G2 G2 | [CEAc]4 [EAc]2 | %12
 [EGB]2 G2 E2 | (E3 D) E2 | E3 D E2 | [EG]4 [DF]2 | [DF]2 [G,B,E]2 |] %17
V:2
 B,2 | x6 | x3 D x2 | x6 | x6 | x6 | [A,CE]4 x2 | x6 | x6 | x6 | x6 | x6 | x6 | x6 | x6 | x6 | %16
 x4 |] %17
V:3
 z2 | [E,G,]4 [D,G,]2 | G,4 G,2 | F,4 A,2 | [E,,B,,E,]4 [D,,D,]2 | [C,,C,]4 E,2 | F,,4 F,2 | %7
 F,4 A,2 | [E,,B,,E,]4 G,2 | [C,G,C]4 [C,G,C]2 | [G,,G,]4 [G,=B,D]2 | [A,,E,A,]4 [E,A,C]2 | %12
 [E,B,]4 [G,B,]2 | [=A,C]4 [A,C]2 | [A,_C]4 [A,C]2 | B,4 [B,,A,]2 | [B,,A,]2 [E,,B,,E,]2 |] %17
V:4
 x2 | x6 | C,6 | B,,6 | x6 | x6 | x6 | B,,6 | x6 | x6 | x6 | x6 | x6 | x6 | x6 | x6 | x4 |] %17

